.local/share/icons/Gruvbox-Plus-Dark/apps/16/ksirk.svg

<svg width="16" height="16" version="1.1" xmlns="http://www.w3.org/2000/svg">
  <defs>
    <style id="current-color-scheme" type="text/css">.ColorScheme-Text { color:#ebdbb2; } .ColorScheme-Highlight { color:#458588; }</style>
  </defs>
  <path class="ColorScheme-Text" d="m13.66 1.855c-0.447 0.201 0.071 0.677-1.471 1.374-1.514 0.682-4.729 0.279-7.626 1.587-0.384 0.174-0.721 0.363-1.025 0.542-0.071-0.152-0.169-0.29-0.291-0.406-0.5401-0.5343-1.199-0.3482-1.335-0.484-0.1761-0.1791-0.1596-0.5432-0.136-0.736 0.029-0.199-0.04-0.4-0.186-0.539-0.3695-0.3468-0.9963-0.1289-1.053 0.385-0.1431 1.033 0.3944 2.184 1.549 2.187 0.2283 0 0.3321 0.03755 0.368 0.271 2e-3 0.019-3e-3 0.038 0 0.058-1.559 1.323-1.411 2.579-1.51 2.981-0.124-0.192-0.414-0.247-0.658-0.136-0.264 0.119-0.496 0.658 0.019 1.8s1.091 1.338 1.355 1.219c0.244-0.111 0.37-0.363 0.31-0.58 0.242 0.126 0.709 0.569 1.567 0.774-0.099-0.346-0.151-0.704-0.154-1.064 3e-3 -2.19 1.777-3.965 3.968-3.968 1.485 0 2.787 0.822 3.464 2.032 1.007-0.963 2.132-2.074 2.942-2.439 1.541-0.696 1.587 0.085 2.033-0.116 0.275-0.124 0.237-0.353 0.116-0.619l-1.703-3.794c-0.1014-0.2231-0.28-0.4703-0.543-0.329zm-6.309 6.136c-1.711 0-3.097 1.386-3.097 3.097 0 1.71 1.386 3.097 3.097 3.097 1.71 0 3.096-1.387 3.096-3.097 0-1.711-1.386-3.097-3.096-3.097zm0 1.18c1.058 1e-3 1.915 0.858 1.916 1.917-1e-3 1.058-0.858 1.915-1.916 1.916-1.059-1e-3 -1.916-0.858-1.917-1.916 1e-3 -1.059 0.858-1.916 1.917-1.917zm-0.659 1.917c0 0.358 0.301 0.658 0.659 0.658s0.658-0.3 0.658-0.658-0.3-0.659-0.658-0.6585-0.659 0.3005-0.659 0.6585z" fill="currentColor"/>
</svg>

<svg xmlns="http://www.w3.org/2000/svg" style="isolation:isolate" width="16" height="16" viewBox="0 0 16 16">
 <defs>
  <style id="current-color-scheme" type="text/css">
   .ColorScheme-Text { color:#ebdbb2; } .ColorScheme-Highlight { color:#458588; }
  </style>
  <linearGradient id="arrongin" x1="0%" x2="0%" y1="0%" y2="100%">
   <stop offset="0%" style="stop-color:#d79921; stop-opacity:1"/>
   <stop offset="100%" style="stop-color:#b57614; stop-opacity:1"/>
  </linearGradient>
  <linearGradient id="aurora" x1="0%" x2="0%" y1="0%" y2="100%">
   <stop offset="0%" style="stop-color:#83a598; stop-opacity:1"/>
   <stop offset="100%" style="stop-color:#b16286; stop-opacity:1"/>
  </linearGradient>
  <linearGradient id="fitdance" x1="0%" x2="0%" y1="0%" y2="100%">
   <stop offset="0%" style="stop-color:#8ec07c; stop-opacity:1"/>
   <stop offset="100%" style="stop-color:#458588; stop-opacity:1"/>
  </linearGradient>
  <linearGradient id="oomox" x1="0%" x2="0%" y1="0%" y2="100%">
   <stop offset="0%" style="stop-color:#458588; stop-opacity:1"/>
   <stop offset="100%" style="stop-color:#928374; stop-opacity:1"/>
  </linearGradient>
  <linearGradient id="rainblue" x1="0%" x2="0%" y1="0%" y2="100%">
   <stop offset="0%" style="stop-color:#b8bb26; stop-opacity:1"/>
   <stop offset="100%" style="stop-color:#076678; stop-opacity:1"/>
  </linearGradient>
  <linearGradient id="sunrise" x1="0%" x2="0%" y1="0%" y2="100%">
   <stop offset="0%" style="stop-color: #fe8019; stop-opacity:1"/>
   <stop offset="100%" style="stop-color: #fabd2f; stop-opacity:1"/>
  </linearGradient>
  <linearGradient id="telinkrin" x1="0%" x2="0%" y1="0%" y2="100%">
   <stop offset="0%" style="stop-color: #83a598; stop-opacity:1"/>
   <stop offset="100%" style="stop-color: #83a598; stop-opacity:1"/>
  </linearGradient>
  <linearGradient id="60spsycho" x1="0%" x2="0%" y1="0%" y2="100%">
   <stop offset="0%" style="stop-color: #fb4934; stop-opacity:1"/>
   <stop offset="25%" style="stop-color: #fabd2f; stop-opacity:1"/>
   <stop offset="50%" style="stop-color: #fe8019; stop-opacity:1"/>
   <stop offset="100%" style="stop-color: #689d6a; stop-opacity:1"/>
  </linearGradient>
  <linearGradient id="90ssummer" x1="0%" x2="0%" y1="0%" y2="100%">
   <stop offset="0%" style="stop-color: #b16286; stop-opacity:1"/>
   <stop offset="20%" style="stop-color: #8ec07c; stop-opacity:1"/>
   <stop offset="50%" style="stop-color: #fabd2f; stop-opacity:1"/>
   <stop offset="100%" style="stop-color: #458588; stop-opacity:1"/>
  </linearGradient>
  <linearGradient id="cyberneon" x1="0%" x2="0%" y1="0%" y2="100%">
    <stop offset="0" style="stop-color:#83a598; stop-opacity:1"/>
    <stop offset="1" style="stop-color:#b16286; stop-opacity:1"/>
  </linearGradient>
 </defs>
 <path style="fill:currentColor" class="ColorScheme-Text" d="M 13.837 1.816 C 13.776 1.813 13.716 1.826 13.662 1.855 C 13.215 2.056 13.733 2.532 12.191 3.229 C 10.677 3.911 7.462 3.508 4.565 4.816 C 4.181 4.99 3.844 5.179 3.54 5.358 C 3.469 5.206 3.371 5.068 3.249 4.952 C 2.97 4.676 2.555 4.526 2.088 4.526 C 1.947 4.526 1.943 4.497 1.914 4.468 C 1.856 4.409 1.816 4.335 1.797 4.255 C 1.739 4.025 1.778 3.732 1.778 3.732 C 1.807 3.533 1.738 3.332 1.592 3.193 C 1.445 3.055 1.24 2.996 1.042 3.036 C 0.773 3.086 0.569 3.306 0.539 3.578 C 0.539 3.578 0.469 4.032 0.598 4.546 C 0.663 4.802 0.793 5.089 1.042 5.338 C 1.322 5.611 1.697 5.764 2.088 5.765 C 2.313 5.765 2.352 5.815 2.378 5.842 C 2.405 5.869 2.438 5.919 2.456 6.036 C 2.458 6.055 2.453 6.074 2.456 6.094 C 0.897 7.417 1.045 8.673 0.946 9.075 C 0.822 8.883 0.532 8.828 0.288 8.939 C 0.024 9.058 -0.208 9.597 0.307 10.739 C 0.822 11.881 1.398 12.077 1.662 11.958 C 1.906 11.847 2.032 11.595 1.972 11.378 C 2.214 11.504 2.681 11.947 3.539 12.152 C 3.44 11.806 3.388 11.448 3.385 11.088 C 3.388 8.898 5.162 7.123 7.353 7.12 C 8.838 7.12 10.14 7.942 10.817 9.152 C 11.824 8.189 12.949 7.078 13.759 6.713 C 15.3 6.017 15.346 6.798 15.792 6.597 C 16.067 6.473 16.029 6.244 15.908 5.978 L 14.205 2.184 C 14.115 1.986 14.003 1.833 13.837 1.816 Z M 7.353 7.991 C 5.642 7.991 4.256 9.377 4.256 11.088 C 4.256 12.798 5.642 14.185 7.353 14.185 C 9.063 14.185 10.449 12.798 10.449 11.088 C 10.449 9.377 9.063 7.991 7.353 7.991 Z M 7.353 9.171 C 8.411 9.172 9.268 10.029 9.269 11.088 C 9.268 12.146 8.411 13.003 7.353 13.004 C 6.294 13.003 5.437 12.146 5.436 11.088 C 5.437 10.029 6.294 9.172 7.353 9.171 L 7.353 9.171 Z M 7.353 10.43 C 6.995 10.43 6.694 10.73 6.694 11.088 C 6.694 11.446 6.995 11.746 7.353 11.746 C 7.711 11.746 8.011 11.446 8.011 11.088 C 8.011 10.73 7.711 10.429 7.353 10.429 L 7.353 10.43 Z"/>
</svg>
